build/images/logo-white.svg

<svg width="524" height="62" viewBox="0 0 524 62" fill="none" xmlns="http://www.w3.org/2000/svg">
<path d="M16.1763 50.36C17.2856 50.36 18.2243 49.976 18.9923 49.208C19.8029 48.3973 20.2296 47.4373 20.2723 46.328V10.808C20.2296 9.69866 19.8029 8.76 18.9923 7.992C18.2243 7.224 17.2856 6.84 16.1763 6.84H15.3443V6.2H34.8003L34.7363 6.84H33.9683C32.8589 6.84 31.8989 7.224 31.0883 7.992C30.2776 8.76 29.8723 9.69866 29.8723 10.808V46.328C29.8723 47.4373 30.2776 48.3973 31.0883 49.208C31.8989 49.976 32.8589 50.36 33.9683 50.36H34.7363L34.8003 51H15.3443V50.36H16.1763Z" fill="#AF1A1A"/>
<path d="M55.0808 15.224H53.0328V46.968C53.0328 47.992 53.3741 48.824 54.0568 49.464C54.7821 50.0613 55.5928 50.36 56.4888 50.36H57.1928V51H39.5928V50.36H40.3608C41.2994 50.36 42.0888 50.04 42.7288 49.4C43.4114 48.76 43.7528 47.9707 43.7528 47.032V16.568C43.7528 15.6293 43.4114 14.84 42.7288 14.2C42.0888 13.56 41.3208 13.24 40.4248 13.24H39.5928V12.6H59.2408C63.0808 12.6 66.3021 13.3467 68.9048 14.84C71.8061 16.504 73.2568 19.256 73.2568 23.096C73.2568 25.5707 72.5101 27.8107 71.0168 29.816C69.5234 31.7787 67.3048 32.9733 64.3608 33.4C65.5128 33.784 66.6434 34.5093 67.7528 35.576C68.9048 36.6427 69.8221 37.7307 70.5048 38.84C71.8701 41.272 73.2994 43.512 74.7928 45.56C76.2861 47.5653 77.4808 48.8667 78.3768 49.464C79.3154 50.0613 80.4461 50.36 81.7688 50.36V51H76.3928C72.8514 51 70.1208 50.5733 68.2008 49.72C66.3234 48.8667 64.6381 47.2453 63.1448 44.856C60.8408 41.1867 59.4114 38.2853 58.8568 36.152C58.3448 34.872 57.7261 33.912 57.0008 33.272C56.3181 32.632 55.6568 32.2693 55.0168 32.184V31.672H56.6168C60.2434 31.6293 62.4621 29.496 63.2728 25.272C63.4434 24.632 63.5288 24.0773 63.5288 23.608C63.5288 23.1387 63.5074 22.4987 63.4648 21.688C63.4221 20.8347 63.1448 19.896 62.6328 18.872C62.1634 17.8053 61.5448 17.0373 60.7768 16.568C59.4541 15.7573 58.0888 15.3307 56.6808 15.288C56.2114 15.2453 55.6781 15.224 55.0808 15.224Z" fill="#AF1A1A"/>
<path fill-rule="evenodd" clip-rule="evenodd" d="M127.032 33.2679C126.221 45.6973 115.868 55.5406 103.237 55.5406C93.8269 55.5406 85.6862 50.0798 81.8085 42.1585C81.8085 42.1585 90.8737 44.5879 93.1409 45.1954C93.4564 45.2802 93.7205 45.5014 93.8563 45.7989C94.9605 48.1659 97.0663 50.0457 99.7848 50.7743C103.417 51.7469 107.126 50.3957 109.331 47.6347C109.331 47.6347 104.477 46.3338 102.272 45.7435C101.685 45.5865 101.337 44.983 101.494 44.3957C101.854 43.0577 102.467 40.7729 102.826 39.4345C102.984 38.8476 103.586 38.4991 104.173 38.6564C106.374 39.2464 111.231 40.5476 111.231 40.5476C111.154 40.052 111.04 39.5659 110.875 39.097C116.895 38.7346 122.45 36.6262 127.032 33.2679Z" fill="#1446A0"/>
<path fill-rule="evenodd" clip-rule="evenodd" d="M95.5966 24.322C96.5138 27.1743 98.8214 29.512 101.932 30.3448C104.651 31.0734 107.413 30.4981 109.556 29.0032C109.824 28.8146 110.157 28.7541 110.477 28.8388C113.309 29.5957 127.008 33.2665 127.008 33.2665C122.429 36.6248 116.878 38.7335 110.858 39.0908C109.941 36.2381 107.633 33.9008 104.522 33.068C101.804 32.3394 99.0415 32.9147 96.899 34.4093C96.6312 34.5982 96.2974 34.6584 95.9819 34.574C93.146 33.8172 79.4473 30.1463 79.4473 30.1463C84.0257 26.7877 89.5764 24.6793 95.5966 24.322Z" fill="white"/>
<path fill-rule="evenodd" clip-rule="evenodd" d="M95.5964 24.3221C96.5135 27.1745 98.8211 29.5121 101.932 30.3449C104.651 31.0735 107.413 30.4982 109.556 29.0033C109.823 28.8147 110.157 28.7542 110.476 28.8389C113.309 29.5958 127.007 33.2666 127.007 33.2666C122.429 36.6249 116.878 38.7336 110.858 39.0909C109.941 36.2382 107.633 33.9009 104.522 33.0681C101.804 32.3395 99.0413 32.9148 96.8988 34.4094C96.631 34.5983 96.2971 34.6585 95.9816 34.5741C93.1457 33.8173 79.447 30.1464 79.447 30.1464C84.0255 26.7878 89.5761 24.6794 95.5964 24.3221Z" fill="white"/>
<path fill-rule="evenodd" clip-rule="evenodd" d="M95.5964 24.3221C96.5135 27.1745 98.8211 29.5121 101.932 30.3449C104.651 31.0735 107.413 30.4982 109.556 29.0033C109.823 28.8147 110.157 28.7542 110.476 28.8389C113.309 29.5958 127.007 33.2666 127.007 33.2666C122.429 36.6249 116.878 38.7336 110.858 39.0909C109.941 36.2382 107.633 33.9009 104.522 33.0681C101.804 32.3395 99.0413 32.9148 96.8988 34.4094C96.631 34.5983 96.2971 34.6585 95.9816 34.5741C93.1457 33.8173 79.447 30.1464 79.447 30.1464C84.0255 26.7878 89.5761 24.6794 95.5964 24.3221Z" fill="url(#paint0_linear)"/>
<path fill-rule="evenodd" clip-rule="evenodd" d="M79.447 30.1264C80.2578 17.697 90.6107 7.85333 103.242 7.85333C112.652 7.85333 120.793 13.3145 124.67 21.2354C124.67 21.2354 115.605 18.806 113.338 18.1985C113.022 18.1138 112.758 17.8925 112.622 17.595C111.518 15.2284 109.412 13.3486 106.694 12.62C103.062 11.6474 99.3531 12.9982 97.1482 15.7592C97.1482 15.7592 102.002 17.0605 104.207 17.6504C104.794 17.8078 105.142 18.4113 104.984 18.9983C104.625 20.3366 104.012 22.6214 103.653 23.9594C103.499 24.5467 102.893 24.8953 102.306 24.7379C100.105 24.148 95.2478 22.8467 95.2478 22.8467C95.3249 23.3419 95.4386 23.8281 95.6037 24.2973C89.5834 24.6597 84.0292 26.7681 79.447 30.1264Z" fill="#AF1A1A"/>
<path fill-rule="evenodd" clip-rule="evenodd" d="M127.037 33.257L127.036 33.2659C122.454 36.6256 116.902 38.7362 110.881 39.095L110.874 39.077C116.892 38.7159 122.442 36.6092 127.023 33.2528L127.037 33.257Z" fill="#AF1A1A"/>
<path fill-rule="evenodd" clip-rule="evenodd" d="M95.6029 24.3075L95.6102 24.3254C89.592 24.6866 84.0418 26.7932 79.4609 30.1496L79.447 30.1455L79.4479 30.1365C84.0296 26.7769 89.5814 24.6662 95.6029 24.3075Z" fill="#1446A0"/>
<mask id="mask0" mask-type="alpha" maskUnits="userSpaceOnUse" x="79" y="24" width="49" height="16">
<path fill-rule="evenodd" clip-rule="evenodd" d="M95.5893 24.3867C96.5065 27.239 98.814 29.5767 101.925 30.4095C104.644 31.1381 107.406 30.5628 109.548 29.0679C109.816 28.8793 110.15 28.8188 110.469 28.9035C113.302 29.6603 127 33.3312 127 33.3312C122.422 36.6895 116.871 38.7982 110.851 39.1555C109.934 36.3028 107.626 33.9655 104.515 33.1327C101.797 32.4041 99.0342 32.9794 96.8917 34.474C96.6239 34.6629 96.29 34.7231 95.9745 34.6387C93.1387 33.8818 79.4399 30.211 79.4399 30.211C84.0184 26.8524 89.5691 24.744 95.5893 24.3867Z" fill="#FF0000"/>
</mask>
<g mask="url(#mask0)">
<g filter="url(#filter0_f)">
<circle cx="84.4" cy="18.1867" r="10.3333" fill="black"/>
</g>
<g filter="url(#filter1_f)">
<ellipse cx="122.427" cy="45.4667" rx="10.3333" ry="10.3333" fill="black"/>
</g>
</g>
<path d="M157.655 12.6H175.639V13.24H174.551C173.569 13.24 172.737 13.5387 172.055 14.136C171.415 14.7333 171.073 15.5013 171.031 16.44V44.408C171.031 47.0533 171.201 49.2293 171.543 50.936L171.671 51.832H171.095L141.719 25.912V47.096C141.761 48.0347 142.103 48.824 142.743 49.464C143.425 50.0613 144.257 50.36 145.239 50.36H146.327V51H128.407V50.36H129.431C130.412 50.36 131.244 50.0613 131.927 49.464C132.609 48.824 132.951 48.0347 132.951 47.096V18.936C132.951 16.376 132.78 14.264 132.439 12.6L132.311 11.704L132.887 11.768L162.199 37.56V16.504C162.199 15.5653 161.857 14.7973 161.175 14.2C160.535 13.56 159.724 13.24 158.743 13.24H157.655V12.6Z" fill="#AF1A1A"/>
<path d="M229.159 18C229.159 19.9627 228.775 21.8187 228.007 23.568C226.557 26.9387 223.869 29.2427 219.943 30.48C218.791 30.864 217.725 31.056 216.743 31.056C213.714 31.056 211.005 30.2667 208.615 28.688V28.048C211.815 28.1333 214.397 27.088 216.359 24.912C218.066 23.0347 218.919 20.5813 218.919 17.552C218.919 14.48 218.173 12.112 216.679 10.448C215.229 8.74133 213.245 7.888 210.727 7.888H206.439V45.328C206.439 46.4373 206.845 47.3973 207.655 48.208C208.466 48.976 209.426 49.36 210.535 49.36H211.367V50H191.911V49.36H192.743C193.853 49.36 194.791 48.976 195.559 48.208C196.37 47.3973 196.797 46.4373 196.839 45.328V9.552C196.839 8.48533 196.434 7.61067 195.623 6.928C194.813 6.20266 193.853 5.84 192.743 5.84H191.911V5.2H213.287C218.493 5.2 222.418 6.30933 225.063 8.528C227.794 10.8747 229.159 14.032 229.159 18Z" fill="#E8E9EB"/>
<path d="M232.645 50V49.36H233.413C234.394 49.36 235.205 49.04 235.845 48.4C236.527 47.76 236.869 46.9707 236.869 46.032V15.632C236.869 14.6933 236.527 13.904 235.845 13.264C235.162 12.5813 234.351 12.24 233.413 12.24H232.645V11.6H250.437V12.24H249.669C248.687 12.24 247.855 12.56 247.173 13.2C246.49 13.84 246.149 14.6507 246.149 15.632V47.44H253.829C256.474 47.3973 258.714 46.5867 260.549 45.008C262.383 43.3867 263.727 41.1253 264.581 38.224H265.285L262.789 50H232.645Z" fill="#E8E9EB"/>
<path d="M308.309 12.24H307.413C306.602 12.24 305.919 12.496 305.365 13.008C304.81 13.4773 304.511 14.096 304.469 14.864V36.048C304.469 40.656 303.061 44.2827 300.245 46.928C297.429 49.5307 293.226 50.832 287.637 50.832C282.09 50.832 277.759 49.552 274.645 46.992C271.573 44.432 270.037 40.8267 270.037 36.176V14.928C270.037 14.16 269.738 13.52 269.141 13.008C268.586 12.496 267.903 12.24 267.093 12.24H266.197V11.6H283.029V12.24H282.133C281.322 12.24 280.639 12.496 280.085 13.008C279.53 13.52 279.253 14.16 279.253 14.928V35.728C279.253 39.6533 280.149 42.7253 281.941 44.944C283.775 47.1627 286.335 48.272 289.621 48.272C292.906 48.272 295.487 47.2267 297.365 45.136C299.285 43.0453 300.245 40.144 300.245 36.432V14.928C300.202 14.1173 299.903 13.4773 299.349 13.008C298.794 12.496 298.111 12.24 297.301 12.24H296.469V11.6H308.309V12.24Z" fill="#E8E9EB"/>
<path d="M363.976 49.36H364.872V50H347.08V49.36H347.976C348.787 49.36 349.363 49.0827 349.704 48.528C350.088 47.9733 350.237 47.3973 350.152 46.8L347.656 28.496L337.48 44.688C335.944 47.12 335.176 49.296 335.176 51.216H334.6L319.816 28.816L317.64 46.8C317.555 47.3973 317.704 47.9733 318.088 48.528C318.472 49.0827 319.048 49.36 319.816 49.36H320.712V50H308.552V49.36H309.448C310.515 49.36 311.432 49.0613 312.2 48.464C313.011 47.824 313.48 46.9707 313.608 45.904L318.6 10.768H319.112L337.224 37.84L354.184 10.768H354.76L359.88 46.224C360.093 47.2053 360.584 47.9733 361.352 48.528C362.12 49.0827 362.995 49.36 363.976 49.36Z" fill="#E8E9EB"/>
<path d="M398.608 21.136C398.608 22.7147 398.266 24.1013 397.583 25.296C396.261 27.6 394.256 28.8587 391.568 29.072C394.426 29.2853 396.816 30.3093 398.736 32.144C400.656 33.936 401.616 36.24 401.616 39.056C401.616 44.56 398.309 48.016 391.696 49.424C389.818 49.808 387.77 50 385.552 50H366.992V49.36H367.696C368.677 49.36 369.488 49.04 370.128 48.4C370.81 47.76 371.173 46.9493 371.216 45.968V15.632C371.173 14.096 370.448 13.0507 369.04 12.496C368.613 12.3253 368.165 12.24 367.696 12.24H366.992V11.6H384.144C393.786 11.6 398.608 14.7787 398.608 21.136ZM391.248 38.48C391.248 36.5173 390.842 34.8747 390.032 33.552C388.538 30.992 385.957 29.712 382.288 29.712C382.245 29.712 382.202 29.712 382.16 29.712V29.136C384.208 29.136 385.872 28.5387 387.152 27.344C388.432 26.1493 389.072 24.2933 389.072 21.776C389.072 16.656 386.746 14.096 382.096 14.096H380.304V47.44H382.864C385.338 47.44 387.344 46.7147 388.88 45.264C390.458 43.8133 391.248 41.552 391.248 38.48Z" fill="#E8E9EB"/>
<path d="M404.926 49.36H405.694C406.718 49.36 407.593 49.04 408.318 48.4C409.043 47.7173 409.406 46.9067 409.406 45.968V15.632C409.406 14.6933 409.043 13.904 408.318 13.264C407.593 12.5813 406.718 12.24 405.694 12.24H404.926V11.6H423.102V12.24H422.334C421.353 12.24 420.499 12.56 419.774 13.2C419.049 13.84 418.665 14.6293 418.622 15.568V45.968C418.665 46.9493 419.049 47.76 419.774 48.4C420.499 49.04 421.353 49.36 422.334 49.36H423.102V50H404.926V49.36Z" fill="#E8E9EB"/>
<path d="M456.655 11.6H474.639V12.24H473.551C472.569 12.24 471.737 12.5387 471.055 13.136C470.415 13.7333 470.073 14.5013 470.031 15.44V43.408C470.031 46.0533 470.201 48.2293 470.543 49.936L470.671 50.832H470.095L440.719 24.912V46.096C440.761 47.0347 441.103 47.824 441.743 48.464C442.425 49.0613 443.257 49.36 444.239 49.36H445.327V50H427.407V49.36H428.431C429.412 49.36 430.244 49.0613 430.927 48.464C431.609 47.824 431.951 47.0347 431.951 46.096V17.936C431.951 15.376 431.78 13.264 431.439 11.6L431.311 10.704L431.887 10.768L461.199 36.56V15.504C461.199 14.5653 460.857 13.7973 460.175 13.2C459.535 12.56 458.724 12.24 457.743 12.24H456.655V11.6Z" fill="#E8E9EB"/>
<path d="M483.497 45.456C479.7 41.872 477.801 36.9653 477.801 30.736C477.801 24.5067 479.7 19.6213 483.497 16.08C487.337 12.5387 492.606 10.768 499.305 10.768C502.292 10.768 505.236 11.0453 508.137 11.6C511.038 12.112 513.385 12.816 515.177 13.712V23.888H514.665C512.788 16.848 508.308 13.328 501.225 13.328C496.788 13.328 493.396 14.8853 491.049 18C488.745 21.072 487.593 25.3813 487.593 30.928C487.593 36.432 488.638 40.6987 490.729 43.728C492.862 46.7573 495.87 48.272 499.753 48.272C501.886 48.272 503.806 47.7813 505.513 46.8C507.22 45.776 508.35 44.3253 508.905 42.448L508.969 34.768C508.969 33.9573 508.713 33.3387 508.201 32.912C507.732 32.4427 507.049 32.208 506.153 32.208H505.257V31.696H521.705V32.208H520.937C519.06 32.208 518.121 33.0613 518.121 34.768V43.344C516.628 45.264 514.11 46.992 510.569 48.528C507.028 50.064 503.145 50.832 498.921 50.832C492.478 50.7893 487.337 48.9973 483.497 45.456Z" fill="#E8E9EB"/>
<defs>
<filter id="filter0_f" x="54.0667" y="-12.1467" width="60.6667" height="60.6667" filterUnits="userSpaceOnUse" color-interpolation-filters="sRGB">
<feFlood flood-opacity="0" result="BackgroundImageFix"/>
<feBlend mode="normal" in="SourceGraphic" in2="BackgroundImageFix" result="shape"/>
<feGaussianBlur stdDeviation="10" result="effect1_foregroundBlur"/>
</filter>
<filter id="filter1_f" x="92.0934" y="15.1333" width="60.6667" height="60.6667" filterUnits="userSpaceOnUse" color-interpolation-filters="sRGB">
<feFlood flood-opacity="0" result="BackgroundImageFix"/>
<feBlend mode="normal" in="SourceGraphic" in2="BackgroundImageFix" result="shape"/>
<feGaussianBlur stdDeviation="10" result="effect1_foregroundBlur"/>
</filter>
<linearGradient id="paint0_linear" x1="38.7264" y1="11.6924" x2="161.28" y2="49.3057" gradientUnits="userSpaceOnUse">
<stop stop-color="#170F11" stop-opacity="0.5"/>
<stop offset="0.52879" stop-color="white" stop-opacity="0.567397"/>
<stop offset="1" stop-color="#170F11" stop-opacity="0.5"/>
</linearGradient>
</defs>
</svg>

<svg width="524" height="62" viewBox="0 0 524 62" fill="none" xmlns="http://www.w3.org/2000/svg"><path d="M16.176 50.36c1.11 0 2.048-.384 2.816-1.152.81-.81 1.238-1.77 1.28-2.88v-35.52c-.042-1.11-.47-2.048-1.28-2.816-.768-.768-1.706-1.152-2.816-1.152h-.832V6.2H34.8l-.064.64h-.768c-1.11 0-2.07.384-2.88 1.152-.81.768-1.216 1.707-1.216 2.816v35.52c0 1.11.406 2.07 1.216 2.88.81.768 1.77 1.152 2.88 1.152h.768l.064.64H15.344v-.64h.832zM55.08 15.224h-2.047v31.744c0 1.024.341 1.856 1.024 2.496.725.597 1.536.896 2.432.896h.704V51h-17.6v-.64h.768c.938 0 1.728-.32 2.368-.96.682-.64 1.024-1.43 1.024-2.368V16.568c0-.939-.342-1.728-1.024-2.368-.64-.64-1.408-.96-2.304-.96h-.832v-.64H59.24c3.84 0 7.061.747 9.664 2.24 2.901 1.664 4.352 4.416 4.352 8.256 0 2.475-.747 4.715-2.24 6.72-1.494 1.963-3.712 3.157-6.656 3.584 1.152.384 2.282 1.11 3.392 2.176 1.152 1.067 2.07 2.155 2.752 3.264a67.36 67.36 0 004.288 6.72c1.493 2.005 2.688 3.307 3.584 3.904.938.597 2.07.896 3.392.896V51h-5.376c-3.542 0-6.272-.427-8.192-1.28-1.878-.853-3.563-2.475-5.056-4.864-2.304-3.67-3.734-6.57-4.288-8.704-.512-1.28-1.13-2.24-1.856-2.88-.683-.64-1.344-1.003-1.984-1.088v-.512h1.6c3.626-.043 5.845-2.176 6.656-6.4.17-.64.256-1.195.256-1.664 0-.47-.022-1.11-.064-1.92-.043-.853-.32-1.792-.832-2.816-.47-1.067-1.088-1.835-1.856-2.304-1.323-.81-2.688-1.237-4.096-1.28a17.836 17.836 0 00-1.6-.064z" fill="#AF1A1A"/><path fill-rule="evenodd" clip-rule="evenodd" d="M127.032 33.268c-.811 12.43-11.164 22.273-23.795 22.273-9.41 0-17.55-5.461-21.428-13.383l11.332 3.037a1.1 1.1 0 01.715.604 9.136 9.136 0 005.929 4.975 9.178 9.178 0 009.546-3.14l-7.059-1.89a1.1 1.1 0 01-.778-1.348l1.332-4.962a1.1 1.1 0 011.347-.778l7.058 1.892a8.116 8.116 0 00-.356-1.451 30.36 30.36 0 0016.157-5.83z" fill="#1446A0"/><path fill-rule="evenodd" clip-rule="evenodd" d="M95.597 24.322a9.117 9.117 0 006.335 6.023 9.15 9.15 0 007.624-1.342 1.1 1.1 0 01.921-.164c2.832.757 16.531 4.428 16.531 4.428a30.28 30.28 0 01-16.15 5.824 9.116 9.116 0 00-6.336-6.023 9.15 9.15 0 00-7.623 1.341c-.268.19-.602.25-.917.165-2.836-.757-16.535-4.428-16.535-4.428a30.273 30.273 0 0116.15-5.824z" fill="#fff"/><path fill-rule="evenodd" clip-rule="evenodd" d="M95.596 24.322a9.117 9.117 0 006.336 6.023 9.15 9.15 0 007.624-1.342c.267-.188.601-.249.92-.164 2.833.757 16.531 4.428 16.531 4.428a30.274 30.274 0 01-16.149 5.824 9.116 9.116 0 00-6.336-6.023 9.15 9.15 0 00-7.623 1.341c-.268.19-.602.25-.917.165-2.836-.757-16.535-4.428-16.535-4.428a30.273 30.273 0 0116.15-5.824z" fill="#fff"/><path fill-rule="evenodd" clip-rule="evenodd" d="M95.596 24.322a9.117 9.117 0 006.336 6.023 9.15 9.15 0 007.624-1.342c.267-.188.601-.249.92-.164 2.833.757 16.531 4.428 16.531 4.428a30.274 30.274 0 01-16.149 5.824 9.116 9.116 0 00-6.336-6.023 9.15 9.15 0 00-7.623 1.341c-.268.19-.602.25-.917.165-2.836-.757-16.535-4.428-16.535-4.428a30.273 30.273 0 0116.15-5.824z" fill="url(#paint0_linear)"/><path fill-rule="evenodd" clip-rule="evenodd" d="M79.447 30.126c.81-12.429 11.164-22.273 23.795-22.273 9.41 0 17.551 5.462 21.428 13.382l-11.332-3.037a1.101 1.101 0 01-.716-.603 9.137 9.137 0 00-5.928-4.975 9.178 9.178 0 00-9.546 3.14l7.059 1.89a1.1 1.1 0 01.777 1.348l-1.331 4.961c-.154.588-.76.936-1.347.779l-7.058-1.891c.077.495.19.981.356 1.45a30.358 30.358 0 00-16.157 5.83zM127.037 33.257l-.001.009a30.308 30.308 0 01-16.155 5.829l-.007-.018a30.336 30.336 0 0016.149-5.824l.014.004z" fill="#AF1A1A"/><path fill-rule="evenodd" clip-rule="evenodd" d="M95.603 24.308l.007.017a30.337 30.337 0 00-16.15 5.825l-.013-.005v-.008a30.306 30.306 0 0116.156-5.83z" fill="#1446A0"/><mask id="a" maskUnits="userSpaceOnUse" x="79" y="24" width="49" height="16"><path fill-rule="evenodd" clip-rule="evenodd" d="M95.59 24.387a9.117 9.117 0 006.335 6.023 9.148 9.148 0 007.623-1.342c.268-.189.602-.25.921-.165 2.833.757 16.531 4.428 16.531 4.428a30.274 30.274 0 01-16.149 5.825 9.116 9.116 0 00-6.336-6.023 9.15 9.15 0 00-7.623 1.341c-.268.189-.602.25-.917.165-2.836-.757-16.535-4.428-16.535-4.428a30.274 30.274 0 0116.15-5.824z" fill="red"/></mask><g mask="url(#a)"><g filter="url(#filter0_f)"><circle cx="84.4" cy="18.187" r="10.333" fill="#000"/></g><g filter="url(#filter1_f)"><circle cx="122.427" cy="45.467" fill="#000" r="10.333"/></g></g><path d="M157.655 12.6h17.984v.64h-1.088c-.982 0-1.814.299-2.496.896-.64.597-.982 1.365-1.024 2.304v27.968c0 2.645.17 4.821.512 6.528l.128.896h-.576l-29.376-25.92v21.184c.042.939.384 1.728 1.024 2.368.682.597 1.514.896 2.496.896h1.088V51h-17.92v-.64h1.024c.981 0 1.813-.299 2.496-.896a3.12 3.12 0 001.024-2.368v-28.16c0-2.56-.171-4.672-.512-6.336l-.128-.896.576.064 29.312 25.792V16.504c0-.939-.342-1.707-1.024-2.304-.64-.64-1.451-.96-2.432-.96h-1.088v-.64z" fill="#AF1A1A"/><path d="M229.159 18c0 1.963-.384 3.819-1.152 5.568-1.45 3.37-4.138 5.675-8.064 6.912-1.152.384-2.218.576-3.2.576-3.029 0-5.738-.79-8.128-2.368v-.64c3.2.085 5.782-.96 7.744-3.136 1.707-1.877 2.56-4.33 2.56-7.36 0-3.072-.746-5.44-2.24-7.104-1.45-1.707-3.434-2.56-5.952-2.56h-4.288v37.44c0 1.11.406 2.07 1.216 2.88.811.768 1.771 1.152 2.88 1.152h.832V50h-19.456v-.64h.832c1.11 0 2.048-.384 2.816-1.152.811-.81 1.238-1.77 1.28-2.88V9.552c0-1.067-.405-1.941-1.216-2.624-.81-.725-1.77-1.088-2.88-1.088h-.832V5.2h21.376c5.206 0 9.131 1.11 11.776 3.328 2.731 2.347 4.096 5.504 4.096 9.472zM232.645 50v-.64h.768c.981 0 1.792-.32 2.432-.96a3.12 3.12 0 001.024-2.368v-30.4a3.12 3.12 0 00-1.024-2.368c-.683-.683-1.494-1.024-2.432-1.024h-.768v-.64h17.792v.64h-.768c-.982 0-1.814.32-2.496.96-.683.64-1.024 1.45-1.024 2.432V47.44h7.68c2.645-.043 4.885-.853 6.72-2.432 1.834-1.621 3.178-3.883 4.032-6.784h.704L262.789 50h-30.144zM308.309 12.24h-.896c-.811 0-1.494.256-2.048.768-.555.47-.854 1.088-.896 1.856v21.184c0 4.608-1.408 8.235-4.224 10.88-2.816 2.603-7.019 3.904-12.608 3.904-5.547 0-9.878-1.28-12.992-3.84-3.072-2.56-4.608-6.165-4.608-10.816V14.928c0-.768-.299-1.408-.896-1.92-.555-.512-1.238-.768-2.048-.768h-.896v-.64h16.832v.64h-.896c-.811 0-1.494.256-2.048.768-.555.512-.832 1.152-.832 1.92v20.8c0 3.925.896 6.997 2.688 9.216 1.834 2.219 4.394 3.328 7.68 3.328 3.285 0 5.866-1.045 7.744-3.136 1.92-2.09 2.88-4.992 2.88-8.704V14.928c-.043-.81-.342-1.45-.896-1.92-.555-.512-1.238-.768-2.048-.768h-.832v-.64h11.84v.64zM363.976 49.36h.896V50H347.08v-.64h.896c.811 0 1.387-.277 1.728-.832.384-.555.533-1.13.448-1.728l-2.496-18.304-10.176 16.192c-1.536 2.432-2.304 4.608-2.304 6.528h-.576l-14.784-22.4L317.64 46.8c-.085.597.064 1.173.448 1.728.384.555.96.832 1.728.832h.896V50h-12.16v-.64h.896c1.067 0 1.984-.299 2.752-.896.811-.64 1.28-1.493 1.408-2.56l4.992-35.136h.512l18.112 27.072 16.96-27.072h.576l5.12 35.456c.213.981.704 1.75 1.472 2.304.768.555 1.643.832 2.624.832zM398.608 21.136c0 1.579-.342 2.965-1.025 4.16-1.322 2.304-3.327 3.563-6.015 3.776 2.858.213 5.248 1.237 7.168 3.072 1.92 1.792 2.88 4.096 2.88 6.912 0 5.504-3.307 8.96-9.92 10.368-1.878.384-3.926.576-6.144.576h-18.56v-.64h.704c.981 0 1.792-.32 2.432-.96.682-.64 1.045-1.45 1.088-2.432V15.632c-.043-1.536-.768-2.581-2.176-3.136a3.587 3.587 0 00-1.344-.256h-.704v-.64h17.152c9.642 0 14.464 3.179 14.464 9.536zm-7.36 17.344c0-1.963-.406-3.605-1.216-4.928-1.494-2.56-4.075-3.84-7.744-3.84h-.128v-.576c2.048 0 3.712-.597 4.992-1.792 1.28-1.195 1.92-3.05 1.92-5.568 0-5.12-2.326-7.68-6.976-7.68h-1.792V47.44h2.56c2.474 0 4.48-.725 6.016-2.176 1.578-1.45 2.368-3.712 2.368-6.784zM404.926 49.36h.768c1.024 0 1.899-.32 2.624-.96.725-.683 1.088-1.493 1.088-2.432V15.632c0-.939-.363-1.728-1.088-2.368-.725-.683-1.6-1.024-2.624-1.024h-.768v-.64h18.176v.64h-.768c-.981 0-1.835.32-2.56.96-.725.64-1.109 1.43-1.152 2.368v30.4c.043.981.427 1.792 1.152 2.432.725.64 1.579.96 2.56.96h.768V50h-18.176v-.64zM456.655 11.6h17.984v.64h-1.088c-.982 0-1.814.299-2.496.896-.64.597-.982 1.365-1.024 2.304v27.968c0 2.645.17 4.821.512 6.528l.128.896h-.576l-29.376-25.92v21.184c.042.939.384 1.728 1.024 2.368.682.597 1.514.896 2.496.896h1.088V50h-17.92v-.64h1.024c.981 0 1.813-.299 2.496-.896a3.12 3.12 0 001.024-2.368v-28.16c0-2.56-.171-4.672-.512-6.336l-.128-.896.576.064 29.312 25.792V15.504c0-.939-.342-1.707-1.024-2.304-.64-.64-1.451-.96-2.432-.96h-1.088v-.64zM483.497 45.456c-3.797-3.584-5.696-8.49-5.696-14.72s1.899-11.115 5.696-14.656c3.84-3.541 9.109-5.312 15.808-5.312 2.987 0 5.931.277 8.832.832 2.901.512 5.248 1.216 7.04 2.112v10.176h-.512c-1.877-7.04-6.357-10.56-13.44-10.56-4.437 0-7.829 1.557-10.176 4.672-2.304 3.072-3.456 7.381-3.456 12.928 0 5.504 1.045 9.77 3.136 12.8 2.133 3.03 5.141 4.544 9.024 4.544 2.133 0 4.053-.49 5.76-1.472 1.707-1.024 2.837-2.475 3.392-4.352l.064-7.68c0-.81-.256-1.43-.768-1.856-.469-.47-1.152-.704-2.048-.704h-.896v-.512h16.448v.512h-.768c-1.877 0-2.816.853-2.816 2.56v8.576c-1.493 1.92-4.011 3.648-7.552 5.184-3.541 1.536-7.424 2.304-11.648 2.304-6.443-.043-11.584-1.835-15.424-5.376z" fill="#E8E9EB"/><defs><filter id="filter0_f" x="54.067" y="-12.147" width="60.667" height="60.667" filterUnits="userSpaceOnUse" color-interpolation-filters="sRGB"><feFlood flood-opacity="0" result="BackgroundImageFix"/><feBlend in="SourceGraphic" in2="BackgroundImageFix" result="shape"/><feGaussianBlur stdDeviation="10" result="effect1_foregroundBlur"/></filter><filter id="filter1_f" x="92.093" y="15.133" width="60.667" height="60.667" filterUnits="userSpaceOnUse" color-interpolation-filters="sRGB"><feFlood flood-opacity="0" result="BackgroundImageFix"/><feBlend in="SourceGraphic" in2="BackgroundImageFix" result="shape"/><feGaussianBlur stdDeviation="10" result="effect1_foregroundBlur"/></filter><linearGradient id="paint0_linear" x1="38.726" y1="11.692" x2="161.28" y2="49.306" gradientUnits="userSpaceOnUse"><stop stop-color="#170F11" stop-opacity=".5"/><stop offset=".529" stop-color="#fff" stop-opacity=".567"/><stop offset="1" stop-color="#170F11" stop-opacity=".5"/></linearGradient></defs></svg>
